!!!OTL: DER HERR DER SCHICKT DEN JOCKEL AUS
!!!ARE: Europa, Mitteleuropa, Deutschland
!!!SCT: F0879
!!!YEM: Copyright 1995, estate of Helmut Schaffrath.
**kern
*ICvox
*Ivox
*M2/4
*k[f#]
*G:
{8d
=1
8g
8a
8b
8cc
=2
8dd
8dd
8dd}
{8dd
=3
8ee
8cc
8gg
8ee
=4
8ee
8dd
8dd}
{8dd
=5
8cc
8cc
8cc
8cc
=6
8b
8ee
8dd}
{8dd
=7
8cc
8a
8f#
8d
=8
8a
8g
8g}
==
!!!AGN: erzaehlendes Volks - Lied, Ballade, Scherz
!!!ONB: ESAC (Essen Associative Code) Database: FINK
!!!AMT: simple duple
!!!AIN: vox
!!!EED: Helmut Schaffrath
!!!EEV: 1.0
*-
